; HEADER_BLOCK_START
; generated by OrcaSlicer 1.6.3 on 2023-08-01 at 22:31:44
; total layer number: 240
; HEADER_BLOCK_END

; THUMBNAIL_BLOCK_START
; THUMBNAIL_BLOCK_END

; external perimeters extrusion width = 0.40mm
; perimeters extrusion width = 0.45mm
; infill extrusion width = 0.45mm
; solid infill extrusion width = 0.40mm
; top infill extrusion width = 0.40mm
; first layer extrusion width = 0.50mm

; EXECUTABLE_BLOCK_START
EXCLUDE_OBJECT_DEFINE NAME=3DBenchy.stl_id_0_copy_0 CENTER=130,120 POLYGON=[[99.9995,110.816],[100.002,110.755],[100.007,110.699],[100.012,110.646],[100.014,110.63],[100.02,110.583],[100.028,110.525],[100.046,110.436],[100.058,110.379],[100.074,110.322],[100.081,110.296],[100.097,110.239],[100.126,110.155],[100.14,110.118],[100.162,110.064],[100.169,110.047],[100.186,110.01],[100.209,109.958],[100.23,109.916],[100.264,109.854],[100.278,109.827],[100.291,109.806],[100.34,109.727],[100.357,109.7],[100.371,109.679],[100.405,109.631],[100.44,109.584],[100.484,109.531],[100.508,109.501],[100.539,109.466],[100.578,109.423],[100.592,109.408],[100.6,109.4],[100.641,109.359],[100.661,109.34],[100.704,109.3],[100.737,109.271],[100.783,109.234],[100.793,109.225],[100.828,109.197],[100.887,109.154],[100.935,109.121],[100.979,109.092],[101.044,109.052],[101.071,109.036],[101.124,109.008],[101.148,108.995],[101.175,108.981],[101.197,108.97],[101.253,108.944],[101.312,108.919],[101.361,108.899],[101.417,108.879],[101.429,108.875],[101.472,108.861],[101.485,108.857],[101.541,108.84],[101.548,108.838],[101.584,108.828],[101.597,108.825],[101.625,108.818],[101.64,108.814],[101.71,108.799],[101.739,108.794],[101.769,108.789],[101.798,108.784],[129.812,104.886],[130.055,104.853],[130.299,104.821],[130.543,104.791],[130.882,104.752],[131.105,104.728],[131.35,104.702],[131.596,104.678],[131.842,104.656],[132.087,104.635],[132.253,104.622],[132.333,104.616],[132.523,104.602],[132.579,104.598],[132.826,104.581],[132.987,104.571],[133.071,104.566],[133.232,104.557],[133.489,104.544],[133.597,104.539],[133.619,104.538],[133.755,104.532],[133.906,104.526],[134.05,104.521],[134.167,104.517],[134.233,104.515],[134.342,104.512],[134.46,104.509],[134.548,104.507],[134.689,104.504],[134.881,104.501],[135.062,104.499],[135.18,104.498],[135.578,104.498],[135.934,104.5],[136.369,104.508],[136.45,104.51],[136.805,104.52],[136.912,104.524],[137.24,104.537],[137.677,104.558],[138.009,104.578],[138.092,104.583],[138.202,104.59],[138.375,104.602],[138.495,104.611],[138.641,104.622],[138.728,104.629],[138.909,104.644],[139.04,104.655],[139.832,104.78],[139.841,104.782],[140.269,104.888],[140.377,104.915],[140.595,104.97],[140.737,105.007],[140.813,105.027],[140.967,105.068],[141.248,105.145],[141.424,105.195],[141.68,105.27],[141.896,105.334],[142.111,105.4],[142.332,105.47],[142.558,105.543],[142.752,105.607],[143.008,105.694],[143.178,105.753],[143.232,105.772],[143.4,105.832],[143.601,105.905],[143.822,105.987],[144.033,106.067],[144.233,106.145],[144.344,106.188],[144.443,106.228],[144.453,106.232],[144.662,106.316],[144.871,106.402],[144.927,106.425],[145.134,106.513],[145.341,106.603],[145.547,106.693],[145.957,106.879],[146.16,106.974],[146.363,107.07],[146.565,107.168],[146.766,107.267],[146.967,107.367],[147.166,107.469],[147.366,107.572],[147.563,107.677],[147.762,107.783],[147.957,107.89],[148.153,107.999],[148.348,108.11],[148.543,108.221],[148.737,108.334],[148.93,108.449],[149.123,108.565],[149.314,108.683],[149.505,108.801],[149.696,108.922],[149.885,109.043],[150.075,109.167],[150.262,109.291],[150.451,109.417],[150.637,109.544],[150.824,109.673],[151.008,109.803],[151.193,109.934],[151.376,110.067],[151.56,110.201],[151.743,110.337],[151.923,110.474],[152.104,110.612],[152.284,110.752],[152.463,110.893],[152.642,111.036],[152.82,111.18],[152.998,111.325],[153.173,111.472],[153.523,111.77],[153.697,111.921],[153.87,112.074],[154.042,112.228],[154.214,112.384],[154.328,112.489],[154.498,112.645],[154.665,112.803],[154.832,112.962],[154.996,113.122],[155.161,113.283],[155.325,113.445],[155.486,113.609],[155.647,113.773],[155.807,113.939],[155.966,114.106],[156.124,114.274],[156.282,114.443],[156.438,114.614],[156.592,114.785],[156.745,114.958],[156.898,115.132],[157.05,115.306],[157.201,115.483],[157.349,115.66],[157.499,115.838],[157.645,116.017],[157.791,116.198],[157.936,116.38],[158.081,116.563],[158.223,116.747],[158.364,116.932],[158.505,117.118],[158.645,117.305],[158.784,117.493],[158.921,117.683],[159.056,117.874],[159.192,118.065],[159.326,118.258],[159.458,118.452],[159.589,118.647],[159.618,118.692],[159.651,118.745],[159.682,118.798],[159.713,118.852],[159.742,118.907],[159.769,118.962],[159.819,119.076],[159.834,119.117],[159.856,119.175],[159.876,119.233],[159.895,119.292],[159.912,119.351],[159.929,119.413],[159.943,119.47],[159.954,119.53],[159.966,119.593],[159.975,119.652],[159.984,119.713],[159.991,119.774],[159.995,119.836],[159.998,119.905],[160,119.966],[160,120.027],[159.999,120.088],[159.996,120.149],[159.992,120.209],[159.986,120.27],[159.977,120.331],[159.968,120.391],[159.958,120.449],[159.945,120.512],[159.932,120.569],[159.916,120.632],[159.901,120.686],[159.883,120.745],[159.863,120.803],[159.842,120.861],[159.82,120.918],[159.797,120.974],[159.771,121.03],[159.744,121.086],[159.716,121.14],[159.686,121.194],[159.655,121.248],[159.623,121.301],[159.589,121.353],[159.472,121.527],[159.339,121.721],[159.206,121.914],[159.071,122.106],[158.936,122.297],[158.797,122.487],[158.659,122.676],[158.52,122.864],[158.38,123.05],[158.237,123.236],[158.095,123.42],[157.951,123.604],[157.659,123.968],[157.51,124.148],[157.361,124.328],[157.21,124.506],[157.06,124.683],[156.907,124.86],[156.752,125.035],[156.597,125.209],[156.482,125.337],[156.326,125.509],[156.167,125.68],[156.008,125.85],[155.848,126.018],[155.688,126.186],[155.526,126.352],[155.2,126.68],[155.034,126.841],[154.869,127.002],[154.703,127.161],[154.535,127.319],[154.368,127.475],[154.199,127.63],[154.028,127.784],[153.857,127.937],[153.686,128.089],[153.512,128.239],[153.338,128.388],[153.164,128.536],[152.987,128.682],[152.811,128.827],[152.632,128.971],[152.454,129.114],[152.275,129.256],[152.093,129.396],[151.911,129.535],[151.728,129.673],[151.544,129.81],[151.359,129.945],[151.173,130.08],[150.799,130.344],[150.611,130.474],[150.421,130.603],[150.23,130.731],[150.039,130.857],[149.846,130.982],[149.653,131.106],[149.458,131.228],[149.263,131.349],[149.067,131.469],[148.869,131.587],[148.672,131.704],[148.472,131.819],[148.272,131.934],[148.072,132.046],[147.87,132.158],[147.595,132.307],[147.395,132.412],[147.196,132.516],[146.996,132.618],[146.796,132.719],[146.595,132.818],[146.392,132.916],[146.19,133.012],[145.987,133.107],[145.783,133.2],[145.579,133.292],[145.374,133.383],[145.169,133.472],[144.963,133.559],[144.756,133.645],[144.666,133.682],[144.549,133.73],[144.341,133.813],[144.122,133.898],[144.003,133.944],[143.704,134.057],[143.493,134.134],[143.293,134.206],[143.071,134.284],[142.884,134.348],[142.869,134.353],[142.656,134.424],[142.443,134.494],[142.207,134.57],[142.005,134.632],[141.979,134.64],[141.751,134.709],[141.523,134.776],[141.295,134.841],[141.142,134.884],[141.065,134.905],[140.924,134.943],[140.707,135.001],[140.606,135.027],[140.488,135.057],[140.269,135.112],[139.844,135.218],[139.316,135.319],[139.306,135.32],[139.05,135.344],[139.003,135.348],[138.81,135.364],[138.725,135.371],[138.561,135.384],[138.481,135.39],[138.134,135.414],[137.688,135.441],[137.649,135.443],[137.264,135.462],[137.126,135.468],[136.778,135.481],[136.564,135.487],[136.344,135.493],[135.907,135.5],[135.522,135.502],[135.177,135.502],[134.877,135.499],[134.821,135.498],[134.599,135.494],[134.457,135.491],[134.338,135.488],[134.166,135.483],[134.076,135.48],[133.93,135.475],[133.752,135.468],[133.728,135.467],[133.57,135.46],[133.463,135.455],[133.332,135.448],[133.133,135.437],[132.889,135.423],[132.644,135.407],[132.629,135.406],[132.342,135.385],[132.096,135.366],[131.849,135.345],[131.667,135.328],[131.603,135.322],[131.423,135.305],[131.179,135.28],[131.111,135.273],[130.935,135.254],[130.619,135.218],[130.373,135.188],[130.204,135.166],[129.882,135.124],[101.828,131.22],[101.792,131.215],[101.743,131.207],[101.686,131.196],[101.653,131.189],[101.597,131.175],[101.584,131.172],[101.548,131.162],[101.536,131.159],[101.48,131.142],[101.429,131.125],[101.417,131.121],[101.361,131.101],[101.312,131.081],[101.253,131.056],[101.197,131.03],[101.155,131.009],[101.105,130.982],[101.086,130.972],[101.044,130.948],[100.993,130.917],[100.979,130.908],[100.944,130.885],[100.935,130.879],[100.887,130.846],[100.847,130.817],[100.84,130.811],[100.793,130.775],[100.756,130.744],[100.749,130.738],[100.704,130.7],[100.661,130.66],[100.64,130.64],[100.592,130.592],[100.557,130.555],[100.539,130.534],[100.519,130.511],[100.48,130.466],[100.444,130.42],[100.431,130.402],[100.41,130.374],[100.407,130.37],[100.373,130.322],[100.357,130.3],[100.342,130.278],[100.308,130.224],[100.278,130.173],[100.251,130.122],[100.23,130.084],[100.218,130.06],[100.195,130.012],[100.169,129.954],[100.148,129.903],[100.127,129.849],[100.109,129.793],[100.107,129.79],[100.09,129.738],[100.075,129.682],[100.06,129.625],[100.046,129.564],[100.035,129.507],[100.026,129.454],[100.025,129.448],[100.016,129.396],[100.012,129.353],[100.008,129.325],[100.002,129.245],[100.001,129.208],[99.9995,129.179],[99.9995,110.816]]
M73 P0 R49
;TYPE:Custom
M190 S60
M109 S220
PRINT_START EXTRUDER=220 BED=60
G90
G21
M83 ; use relative distances for extrusion
; filament start gcode
M106 S0
;LAYER_CHANGE
;Z:0.2
;HEIGHT:0.2
;BEFORE_LAYER_CHANGE
;0.2
G92 E0

G1 E-.8 F1800
G1 Z.4 F21000
;AFTER_LAYER_CHANGE
;0.2
M204 S500
; printing object 3DBenchy.stl id:0 copy 0
EXCLUDE_OBJECT_START NAME=3DBenchy.stl_id_0_copy_0
G1 X136.121 Y123.088
G1 Z.2
G1 E.8 F1800
;TYPE:Inner wall
;WIDTH:0.499999
G1 F3000
G1 X136.188 Y123.271 E.00724
G1 X136.448 Y123.7 E.01869
G1 X136.752 Y123.989 E.01564
G1 X137.125 Y124.164 E.01532
G1 X137.631 Y124.266 E.01924
G1 X138.199 Y124.255 E.02118
G1 X137.725 Y124.59 E.02164
G1 X137.055 Y125.013 E.02953
G1 X136.535 Y125.307 E.02224
G1 X135.856 Y125.647 E.02828
G1 X135.023 Y126.003 E.03376
G1 X134.522 Y126.18 E.0198
G1 X134.808 Y125.917 E.01448
G1 X135.124 Y125.487 E.01989
G1 X135.383 Y124.991 E.02083
G1 X136.1 Y123.144 E.07379
G1 E-.56 F1800
;WIPE_START
G1 F3000
G1 X136.188 Y123.271 E-.01763
G1 X136.448 Y123.7 E-.05719
G1 X136.752 Y123.989 E-.04788
G1 X137.125 Y124.164 E-.04688
G1 X137.627 Y124.265 E-.05842
;WIPE_END
G1 E-.012 F1800
G1 Z.6 F21000
G1 X140.285 Y123.024 Z.2
G1 X140.327 Y123.004
G1 X140.365 Y122.982
G1 X140.429 Y122.928
G1 X142.425 Y120.082
G1 X141.926 Y120.005
G1 E.8 F1800
;WIDTH:0.5398
G1 F3000
G1 X141.872 Y120.13 E.0055
G1 X141.462 Y120.799 E.03178
;WIDTH:0.535979
G1 X141.101 Y121.314 E.02526
G1 X140.931 Y121.179 E.00871
G1 X140.675 Y121.068 E.01118
G1 X141.12 Y120.431 E.03122
;WIDTH:0.539811
G1 X141.442 Y119.88 E.02584
G1 X141.596 Y119.418 E.01972
G1 X141.896 Y119.953 E.02483
G1 E-.56 F1800
;WIPE_START
G1 F3000
G1 X141.872 Y120.13 E-.02037
G1 X141.462 Y120.799 E-.08948
G1 X141.101 Y121.314 E-.07166
G1 X140.931 Y121.179 E-.02472
G1 X140.755 Y121.103 E-.02176
;WIPE_END
G1 E-.012 F1800
G1 Z.6 F21000
G1 X140.76 Y119.404 Z.2
G1 X140.758 Y119.275
G1 X140.75 Y119.177
G1 X140.736 Y119.085
G1 X140.717 Y118.997
G1 X140.694 Y118.91
G1 X140.666 Y118.827
G1 X140.608 Y118.693
G1 X140.549 Y118.586
G1 X140.471 Y118.481
G1 X140.38 Y118.392
G1 X140.321 Y118.351
G1 X140.264 Y118.316
G1 X140.195 Y118.281
G1 X140.05 Y118.217
G1 X139.135 Y117.881
G1 X138.898 Y117.799
G1 X123.373 Y116.386
G1 X122.985 Y116.365
G1 X118.013 Y116.191
G1 X117.758 Y116.184
G1 X117.592 Y116.188
G1 X117.012 Y116.646
G1 X116.832 Y116.805
G1 X116.748 Y116.89
G1 X116.673 Y116.974
G1 X116.304 Y117.394
G1 X116.273 Y117.438
G1 X116.229 Y117.525
G1 X115.564 Y118.894
G1 E.8 F1800
;WIDTH:0.499999
G1 F3000
G1 X115.82 Y119.141 E.01325
G1 X115.74 Y119.64 E.01879
G1 X115.742 Y120.033 E.01464
G1 X115.833 Y120.34 E.01196
G1 X116.021 Y120.665 E.01397
G1 X115.922 Y120.706 E.00398
G1 X115.538 Y120.99 E.01777
G1 X115.141 Y121.604 E.02725
;WIDTH:0.535578
G1 X115.098 Y121.727 E.00524
;WIDTH:0.571157
G1 X115.054 Y121.85 E.00562
;WIDTH:0.606736
G1 X115.01 Y121.973 E.006
G1 X114.997 Y122.299 E.01499
;WIDTH:0.589728
G1 X115.053 Y122.489 E.00882
;WIDTH:0.549274
G1 X115.109 Y122.679 E.00817
;WIDTH:0.508819
G1 X115.334 Y123.163 E.02026
;WIDTH:0.499999
G1 X115.53 Y123.425 E.01218
G1 X115.982 Y123.785 E.02153
G1 X116.354 Y123.975 E.01554
G1 X117.174 Y124.185 E.03155
G1 X117.792 Y124.218 E.02303
G1 X118.328 Y124.178 E.02004
G1 X118.882 Y124.041 E.02124
G1 X119.379 Y123.809 E.02042
G1 X119.731 Y123.571 E.01582
G1 X120.139 Y123.185 E.02093
G1 X120.294 Y123.425 E.01064
G1 X120.692 Y123.835 E.02128
G1 X121.136 Y124.018 E.01791
G1 X121.517 Y124.079 E.01437
G1 X122.135 Y124.041 E.02306
G1 X122.905 Y124.047 E.02866
G1 X123.534 Y124.008 E.02346
G1 X124.045 Y123.925 E.01931
G1 X124.624 Y123.746 E.02255
G1 X124.981 Y123.558 E.01503
G1 X125.237 Y123.893 E.0157
G1 X125.835 Y124.303 E.02702
G1 X126.26 Y124.46 E.01687
G1 X126.722 Y124.526 E.01736
G1 X127.368 Y124.435 E.02431
G1 X127.733 Y124.294 E.01455
G1 X128.157 Y124.007 E.0191
G1 X128.534 Y124.162 E.01516
G1 X128.986 Y124.239 E.01709
G1 X129.407 Y124.202 E.01573
G1 X129.811 Y124.028 E.0164
G1 X130.096 Y123.801 E.01358
G1 X130.203 Y123.899 E.00542
G1 X130.523 Y124.109 E.01422
G1 X130.993 Y124.249 E.01827
G1 X131.333 Y124.245 E.01269
G1 X131.249 Y124.409 E.00687
G1 X131.122 Y124.958 E.02098
G1 X131.167 Y125.392 E.01625
G1 X131.337 Y125.865 E.01875
G1 X131.72 Y126.364 E.02339
G1 X131.945 Y126.529 E.01041
G1 X132.394 Y126.731 E.01832
G1 X131.586 Y126.848 E.03041
G1 X130.739 Y126.917 E.03165
G1 X129.836 Y126.933 E.03363
G1 X129.206 Y126.908 E.02347
G1 X106.741 Y125.543 E.83829
G1 X105.749 Y125.465 E.03704
G1 X105.513 Y125.358 E.00965
G1 X105.383 Y125.203 E.00755
G1 X105.292 Y124.805 E.01521
G1 X105.293 Y123.418 E.05166
G1 X105.591 Y123.644 E.01393
G1 X106.082 Y123.911 E.02084
G1 X106.35 Y124.015 E.01071
G1 X107.193 Y124.199 E.0321
G1 X107.951 Y124.2 E.02825
G1 X108.604 Y124.089 E.02467
G1 X109.122 Y123.904 E.0205
G1 X109.617 Y123.597 E.02167
G1 X109.984 Y123.253 E.01876
G1 X110.231 Y122.879 E.01669
;WIDTH:0.528258
G1 X110.368 Y122.63 E.01121
;WIDTH:0.556517
G1 X110.504 Y122.382 E.01186
;WIDTH:0.567536
G1 X110.564 Y122.095 E.01252
;WIDTH:0.599606
G1 X110.531 Y121.63 E.02116
G1 X110.397 Y121.386 E.01262
;WIDTH:0.549803
G1 X110.263 Y121.142 E.01149
;WIDTH:0.499999
G1 X109.834 Y120.704 E.02285
G1 X109.702 Y120.634 E.00556
;WIDTH:0.547066
G1 X109.531 Y120.549 E.00783
;WIDTH:0.594132
G1 X109.36 Y120.464 E.00856
;WIDTH:0.641199
G1 X109.19 Y120.38 E.00929
;WIDTH:0.688265
G1 X109.019 Y120.295 E.01002
;WIDTH:0.696571
G1 X108.646 Y120.283 E.01986
G1 X108.586 Y120.315 E.00368
;WIDTH:0.652826
G1 X108.525 Y120.348 E.00343
;WIDTH:0.609081
G1 X108.464 Y120.381 E.00318
;WIDTH:0.565336
G1 X108.403 Y120.413 E.00294
;WIDTH:0.52159
G1 X107.843 Y120.676 E.02412
;WIDTH:0.499999
G1 X107.607 Y120.876 E.01152
G1 X107.389 Y120.832 E.00829
G1 X107.298 Y120.617 E.0087
G1 X107.231 Y119.98 E.02383
G1 X107.269 Y119.462 E.01937
G1 X107.337 Y119.203 E.00995
G1 X107.448 Y119.059 E.00679
G1 X108.213 Y119.431 E.03165
;WIDTH:0.549142
G1 X108.332 Y119.482 E.00535
;WIDTH:0.598285
G1 X108.451 Y119.533 E.00587
;WIDTH:0.647428
G1 X108.57 Y119.585 E.00639
;WIDTH:0.696571
G1 X108.689 Y119.636 E.00691
G1 X108.901 Y119.652 E.0113
;WIDTH:0.682188
G1 X109.008 Y119.632 E.00568
;WIDTH:0.656664
G1 X109.116 Y119.613 E.00546
;WIDTH:0.63114
G1 X109.291 Y119.531 E.00928
;WIDTH:0.587427
G1 X109.466 Y119.449 E.00859
;WIDTH:0.543713
G1 X109.642 Y119.367 E.0079
;WIDTH:0.499999
G1 X110.076 Y119.013 E.02088
G1 X110.188 Y119.072 E.00471
G1 X110.625 Y119.19 E.01686
G1 X111.119 Y119.183 E.01837
G1 X111.129 Y120.845 E.06192
;WIDTH:0.541799
G1 X111.111 Y121.307 E.01878
;WIDTH:0.583599
G1 X111.067 Y122.377 E.04719
;WIDTH:0.578438
