;FLAVOR:Marlin
;TIME:6202
;Filament used: 4.26538m
;Layer height: 0.2
;MINX:112.588
;MINY:130.375
;MINZ:0.2
;MAXX:179.778
;MAXY:169.629
;MAXZ:48
;Generated with Cura_SteamEngine 5.3.1
M140 S75
M105
M190 S75
M104 S215
M105
M109 S215
M82 ;absolute extrusion mode
G28 ; home all axes
 M117 Purge extruder
 G92 E0 ; reset extruder
 G1 Z1.0 F3000 ; move z up little to prevent scratching of surface
 G1 X2 Y20 Z0.3 F5000.0 ; move to start-line position
 G1 X2 Y200.0 Z0.3 F1500.0 E15 ; draw 1st line
 G1 X2 Y200.0 Z0.4 F5000.0 ; move to side a little
 G1 X2 Y20 Z0.4 F1500.0 E30 ; draw 2nd line
 G92 E0 ; reset extruder
 G1 Z1.0 F3000 ; move z up little to prevent scratching of surface
G92 E0
G92 E0
G1 F1500 E-2
;LAYER_COUNT:240
;LAYER:0
M107
G0 F6000 X117.967 Y136.112 Z0.2
;TYPE:SKIRT
G1 F1500 E0
G1 F1200 X118.667 Y135.54 E0.03307
G1 X119.192 Y135.173 E0.05651
G1 X119.411 Y135.03 E0.06608
G1 X120.189 Y134.569 E0.09916
G1 X120.844 Y134.25 E0.12582
G1 X121.262 Y134.064 E0.14256
G1 X122.103 Y133.733 E0.17562
G1 X122.971 Y133.478 E0.20872
G1 X124.145 Y133.26 E0.25241
G1 X124.914 Y133.176 E0.28071
G1 X125.796 Y133.109 E0.31307
G1 X148.189 Y131.749 E1.13386
G1 X148.827 Y131.718 E1.15723
G1 X149.82 Y131.695 E1.19357
G1 X150.85 Y131.705 E1.23125
G1 X151.79 Y131.751 E1.26568
G1 X152.323 Y131.795 E1.28525
G1 X153.415 Y131.922 E1.32547
G1 X154.344 Y132.06 E1.35983
G1 X154.66 Y132.115 E1.37157
G1 X155.204 Y132.225 E1.39187
G1 X155.82 Y132.367 E1.415
G1 X156.865 Y132.64 E1.45452
G1 X157.248 Y132.751 E1.46911
G1 X158.148 Y133.035 E1.50363
G1 X158.63 Y133.203 E1.52231
G1 X159.377 Y133.485 E1.55152
G1 X160.236 Y133.848 E1.58564
G1 X160.659 Y134.043 E1.60268
G1 X161.283 Y134.348 E1.62809
G1 X162.235 Y134.848 E1.66743
G1 X162.963 Y135.264 E1.69811
G1 X163.322 Y135.484 E1.71351
G1 X163.873 Y135.837 E1.73746
G1 X164.298 Y136.124 E1.75622
G1 X164.906 Y136.558 E1.78355
G1 X165.39 Y136.926 E1.80579
G1 X166.212 Y137.59 E1.84445
G1 X166.783 Y138.077 E1.87191
G1 X167.169 Y138.429 E1.89102
G1 X167.611 Y138.854 E1.91346
G1 X167.961 Y139.208 E1.93167
G1 X168.578 Y139.862 E1.96456
G1 X168.956 Y140.28 E1.98518
G1 X169.482 Y140.906 E2.0151
G1 X169.999 Y141.564 E2.04571
G1 X170.721 Y142.562 E2.09078
G1 X171.038 Y143.028 E2.1114
G1 X171.257 Y143.374 E2.12638
G1 X171.738 Y144.167 E2.16031
G1 X172.172 Y144.96 E2.19339
G1 X172.535 Y145.788 E2.22646
G1 X172.885 Y146.872 E2.26814
G1 X172.985 Y147.253 E2.28255
G1 X173.176 Y148.137 E2.31564
G1 X173.288 Y149.034 E2.34871
G1 X173.32 Y149.938 E2.38181
G1 X173.303 Y150.435 E2.4
G1 X173.279 Y150.852 E2.41528
G1 X173.187 Y151.752 E2.44838
G1 X173.016 Y152.639 E2.48143
G1 X172.734 Y153.608 E2.51835
G1 X172.617 Y153.946 E2.53144
G1 X172.284 Y154.786 E2.5645
G1 X171.791 Y155.745 E2.60395
G1 X171.33 Y156.521 E2.63697
G1 X170.947 Y157.105 E2.66252
G1 X170.459 Y157.809 E2.69386
G1 X170.183 Y158.189 E2.71105
G1 X169.686 Y158.84 E2.74101
G1 X169.319 Y159.294 E2.76237
G1 X168.824 Y159.859 E2.78985
G1 X168.139 Y160.601 E2.8268
G1 X167.595 Y161.158 E2.85528
G1 X166.96 Y161.759 E2.88727
G1 X166.37 Y162.284 E2.91617
G1 X166.036 Y162.564 E2.93211
G1 X165.542 Y162.961 E2.9553
G1 X165.07 Y163.319 E2.97697
G1 X164.225 Y163.921 E3.01493
G1 X163.635 Y164.311 E3.04081
G1 X162.855 Y164.789 E3.07428
G1 X162.499 Y164.997 E3.08936
G1 X161.642 Y165.469 E3.12516
G1 X161.139 Y165.727 E3.14584
G1 X160.496 Y166.037 E3.17196
G1 X160.086 Y166.219 E3.18837
G1 X159.562 Y166.439 E3.20916
G1 X159.12 Y166.613 E3.22654
G1 X157.986 Y167.021 E3.27063
G1 X157.316 Y167.234 E3.29635
G1 X156.408 Y167.488 E3.33085
G1 X155.635 Y167.677 E3.35996
G1 X155.017 Y167.808 E3.38307
G1 X154.133 Y167.967 E3.41594
G1 X153.724 Y168.032 E3.43109
G1 X153.001 Y168.132 E3.45779
G1 X152.479 Y168.19 E3.47701
G1 X151.818 Y168.247 E3.50128
G1 X151.383 Y168.275 E3.51723
G1 X150.541 Y168.305 E3.54805
G1 X149.878 Y168.309 E3.57231
G1 X149.366 Y168.299 E3.59105
G1 X148.017 Y168.238 E3.64045
G1 X125.511 Y166.874 E4.46537
G1 X124.854 Y166.825 E4.48947
G1 X123.956 Y166.718 E4.52256
G1 X123.075 Y166.533 E4.55549
G1 X122.806 Y166.464 E4.56566
G1 X121.941 Y166.2 E4.59874
G1 X121.408 Y165.995 E4.61964
G1 X121.099 Y165.866 E4.63189
G1 X120.281 Y165.481 E4.66496
G1 X119.465 Y165.003 E4.69956
G1 X119.099 Y164.765 E4.71554
G1 X118.363 Y164.239 E4.74863
G1 X117.677 Y163.65 E4.78171
G1 X117.046 Y163.003 E4.81478
G1 X116.491 Y162.325 E4.84683
G1 X116.222 Y161.966 E4.86325
G1 X115.713 Y161.22 E4.89629
G1 X115.129 Y160.137 E4.9413
G1 X114.982 Y159.82 E4.95409
G1 X114.639 Y158.984 E4.98715
G1 X114.326 Y157.946 E5.02681
G1 X114.209 Y157.467 E5.04485
G1 X114.033 Y156.58 E5.07794
G1 X113.937 Y155.681 E5.11102
G1 X113.918 Y155.212 E5.12819
G1 X113.908 Y154.612 E5.15014
G1 X113.908 Y145.641 E5.47836
G1 X113.923 Y144.723 E5.51195
G1 X113.978 Y143.821 E5.54501
G1 X114.114 Y142.927 E5.5781
G1 X114.24 Y142.369 E5.59902
G1 X114.369 Y141.865 E5.61806
G1 X114.632 Y141 E5.65114
G1 X114.97 Y140.161 E5.68423
G1 X115.535 Y139.094 E5.7284
G1 X115.75 Y138.74 E5.74355
G1 X116.253 Y137.989 E5.77662
G1 X117.025 Y137.059 E5.82085
G1 X117.32 Y136.744 E5.83663
G1 X117.967 Y136.112 E5.86972
G0 F6000 X117.689 Y135.771
G1 F1200 X118.415 Y135.179 E5.904
G1 X118.951 Y134.805 E5.92791
G1 X119.187 Y134.651 E5.93822
G1 X119.996 Y134.173 E5.9726
G1 X120.665 Y133.848 E5.99981
G1 X121.101 Y133.655 E6.01725
G1 X121.979 Y133.311 E6.05175
G1 X122.891 Y133.045 E6.08651
G1 X124.065 Y132.827 E6.1302
G1 X124.881 Y132.737 E6.16023
G1 X125.769 Y132.67 E6.19281
G1 X148.168 Y131.31 E7.01382
G1 X148.817 Y131.278 E7.03759
G1 X149.824 Y131.255 E7.07444
G1 X150.872 Y131.266 E7.11279
G1 X151.826 Y131.312 E7.14773
G1 X152.374 Y131.358 E7.16785
G1 X153.48 Y131.487 E7.20859
G1 X154.419 Y131.627 E7.24332
G1 X154.747 Y131.684 E7.2555
G1 X155.303 Y131.796 E7.27625
G1 X155.931 Y131.941 E7.29983
G1 X156.987 Y132.217 E7.33977
G1 X157.38 Y132.331 E7.35474
G1 X158.293 Y132.62 E7.38977
G1 X158.785 Y132.791 E7.40883
G1 X159.548 Y133.08 E7.43868
G1 X160.42 Y133.448 E7.47331
G1 X160.852 Y133.648 E7.49073
G1 X161.488 Y133.958 E7.51661
G1 X162.44 Y134.458 E7.55595
G1 X163.193 Y134.889 E7.5877
G1 X164.119 Y135.472 E7.62773
G1 X164.554 Y135.766 E7.64694
G1 X165.172 Y136.208 E7.67474
G1 X165.666 Y136.584 E7.69745
G1 X166.498 Y137.255 E7.73656
G1 X167.069 Y137.742 E7.76401
G1 X167.474 Y138.112 E7.78408
G1 X167.924 Y138.545 E7.80693
G1 X168.281 Y138.906 E7.82551
G1 X168.904 Y139.567 E7.85874
G1 X169.293 Y139.997 E7.87995
G1 X169.828 Y140.634 E7.91039
G1 X170.355 Y141.306 E7.94163
G1 X171.085 Y142.315 E7.98719
G1 X171.41 Y142.793 E8.00834
G1 X171.633 Y143.146 E8.02362
G1 X172.124 Y143.956 E8.05827
G1 X172.575 Y144.783 E8.09274
G1 X172.954 Y145.653 E8.12746
G1 X173.311 Y146.76 E8.17001
G1 X173.415 Y147.16 E8.18513
G1 X173.613 Y148.082 E8.21963
G1 X173.725 Y148.979 E8.25271
G1 X173.76 Y149.922 E8.28723
G1 X173.742 Y150.46 E8.30692
G1 X173.717 Y150.897 E8.32294
G1 X173.625 Y151.797 E8.35604
G1 X173.448 Y152.722 E8.39049
G1 X173.15 Y153.752 E8.42972
G1 X173.026 Y154.108 E8.44352
G1 X172.693 Y154.948 E8.47657
G1 X172.169 Y155.97 E8.51859
G1 X171.698 Y156.762 E8.55231
G1 X171.309 Y157.356 E8.57828
G1 X170.815 Y158.068 E8.60999
G1 X170.533 Y158.456 E8.62754
G1 X170.028 Y159.117 E8.65797
G1 X169.65 Y159.584 E8.67995
G1 X169.147 Y160.157 E8.70785
G1 X168.454 Y160.908 E8.74524
G1 X167.897 Y161.478 E8.77439
G1 X167.252 Y162.088 E8.80687
G1 X166.653 Y162.621 E8.83621
G1 X166.312 Y162.907 E8.85249
G1 X165.808 Y163.312 E8.87615
G1 X165.336 Y163.67 E8.89782
G1 X164.468 Y164.288 E8.9368
G1 X163.865 Y164.686 E8.96324
G1 X163.077 Y165.169 E8.99705
G1 X162.711 Y165.382 E9.01254
G1 X161.843 Y165.861 E9.04882
G1 X161.33 Y166.123 E9.06989
G1 X160.675 Y166.439 E9.0965
G1 X160.256 Y166.625 E9.11327
G1 X159.723 Y166.848 E9.13441
G1 X159.269 Y167.027 E9.15226
G1 X158.119 Y167.44 E9.19697
G1 X157.435 Y167.658 E9.22323
G1 X156.513 Y167.915 E9.25825
G1 X155.726 Y168.107 E9.28789
G1 X155.095 Y168.241 E9.31149
G1 X154.202 Y168.402 E9.34469
G1 X153.784 Y168.468 E9.36017
G1 X153.05 Y168.569 E9.38728
G1 X152.517 Y168.628 E9.4069
G1 X151.846 Y168.686 E9.43154
G1 X151.399 Y168.715 E9.44793
G1 X150.557 Y168.745 E9.47875
G1 X149.869 Y168.749 E9.50392
G1 X149.346 Y168.739 E9.52306
G1 X147.99 Y168.677 E9.57272
G1 X125.478 Y167.313 E10.39786
G1 X124.802 Y167.262 E10.42266
G1 X123.866 Y167.149 E10.45716
G1 X122.966 Y166.959 E10.49081
G1 X122.678 Y166.885 E10.50169
G1 X121.783 Y166.611 E10.53593
G1 X121.238 Y166.401 E10.5573
G1 X120.912 Y166.264 E10.57024
G1 X120.059 Y165.861 E10.60476
G1 X119.225 Y165.372 E10.64013
G1 X118.843 Y165.123 E10.65681
G1 X118.076 Y164.573 E10.69134
G1 X117.39 Y163.984 E10.72442
G1 X116.706 Y163.282 E10.76028
G1 X116.139 Y162.589 E10.79304
G1 X115.859 Y162.214 E10.81016
G1 X115.326 Y161.429 E10.84488
G1 X114.73 Y160.322 E10.89087
G1 X114.575 Y159.987 E10.90438
G1 X114.232 Y159.151 E10.93744
G1 X113.899 Y158.05 E10.97952
G1 X113.777 Y157.553 E10.99825
G1 X113.595 Y156.627 E11.03277
G1 X113.499 Y155.728 E11.06585
G1 X113.478 Y155.219 E11.08449
G1 X113.468 Y154.619 E11.10644
G1 X113.468 Y145.634 E11.43517
G1 X113.484 Y144.696 E11.46949
G1 X113.543 Y143.755 E11.50399
G1 X113.679 Y142.861 E11.53707
G1 X113.814 Y142.26 E11.55961
G1 X113.948 Y141.737 E11.57936
G1 X114.211 Y140.872 E11.61244
G1 X114.581 Y139.955 E11.64862
G1 X115.146 Y138.888 E11.69279
G1 X115.384 Y138.495 E11.7096
G1 X115.887 Y137.744 E11.74267
G1 X116.686 Y136.778 E11.78853
G1 X117.013 Y136.429 E11.80603
G1 X117.689 Y135.771 E11.84054
G0 F6000 X117.411 Y135.43
G1 F1200 X118.163 Y134.818 E11.87602
G1 X118.699 Y134.444 E11.89993
G1 X118.963 Y134.272 E11.91146
G1 X119.772 Y133.794 E11.94584
G1 X120.487 Y133.446 E11.97493
G1 X120.94 Y133.245 E11.99306
G1 X121.818 Y132.901 E12.02756
G1 X122.811 Y132.612 E12.0654
G1 X123.985 Y132.394 E12.10908
G1 X124.848 Y132.298 E12.14085
G1 X125.742 Y132.231 E12.17365
G1 X148.146 Y130.871 E12.99484
G1 X148.807 Y130.838 E13.01905
G1 X149.829 Y130.815 E13.05645
G1 X150.893 Y130.827 E13.09538
G1 X151.863 Y130.874 E13.13091
G1 X152.425 Y130.921 E13.15155
G1 X153.545 Y131.052 E13.1928
G1 X154.494 Y131.193 E13.2279
G1 X154.834 Y131.253 E13.24053
G1 X155.402 Y131.367 E13.26173
G1 X156.042 Y131.515 E13.28576
G1 X157.11 Y131.794 E13.32615
G1 X157.503 Y131.908 E13.34112
G1 X158.437 Y132.204 E13.37697
G1 X158.941 Y132.38 E13.3965
G1 X159.719 Y132.675 E13.42694
G1 X160.605 Y133.049 E13.46212
G1 X161.045 Y133.252 E13.47985
G1 X161.693 Y133.568 E13.50623
G1 X162.659 Y134.076 E13.54616
G1 X163.412 Y134.507 E13.5779
G1 X164.365 Y135.107 E13.6191
G1 X164.81 Y135.408 E13.63876
G1 X165.438 Y135.858 E13.66703
G1 X165.942 Y136.242 E13.69021
G1 X166.784 Y136.92 E13.72976
G1 X167.366 Y137.417 E13.75776
G1 X167.779 Y137.795 E13.77824
G1 X168.237 Y138.236 E13.8015
G1 X168.601 Y138.604 E13.82044
G1 X169.23 Y139.272 E13.85401
G1 X169.63 Y139.714 E13.87582
G1 X170.174 Y140.362 E13.90677
G1 X170.711 Y141.048 E13.93865
G1 X171.449 Y142.068 E13.98471
G1 X171.782 Y142.558 E14.00638
G1 X172.009 Y142.918 E14.02196
G1 X172.51 Y143.745 E14.05733
G1 X172.961 Y144.572 E14.09179
G1 X173.373 Y145.518 E14.12954
G1 X173.737 Y146.649 E14.17301
G1 X173.845 Y147.068 E14.18884
G1 X174.05 Y148.027 E14.22472
G1 X174.162 Y148.924 E14.2578
G1 X174.2 Y149.906 E14.29375
G1 X174.181 Y150.485 E14.31495
G1 X174.155 Y150.942 E14.33169
G1 X174.063 Y151.842 E14.36479
G1 X173.871 Y152.844 E14.40212
G1 X173.566 Y153.897 E14.44223
G1 X173.435 Y154.27 E14.45669
G1 X173.085 Y155.149 E14.49131
G1 X172.561 Y156.171 E14.53332
G1 X172.066 Y157.003 E14.56874
G1 X171.671 Y157.607 E14.59515
G1 X171.171 Y158.327 E14.62722
G1 X170.883 Y158.723 E14.64513
G1 X170.37 Y159.394 E14.67604
G1 X169.981 Y159.874 E14.69864
G1 X169.47 Y160.455 E14.72695
G1 X168.769 Y161.216 E14.7648
G1 X168.199 Y161.798 E14.79461
G1 X167.544 Y162.417 E14.82758
G1 X166.936 Y162.958 E14.85735
G1 X166.588 Y163.25 E14.87397
G1 X166.074 Y163.663 E14.8981
G1 X165.602 Y164.021 E14.91977
G1 X164.71 Y164.655 E14.95981
G1 X164.095 Y165.061 E14.98677
G1 X163.298 Y165.549 E15.02096
G1 X162.924 Y165.767 E15.0368
G1 X162.043 Y166.253 E15.07361
G1 X161.521 Y166.519 E15.09505
G1 X160.854 Y166.841 E15.12214
G1 X160.426 Y167.031 E15.13928
G1 X159.884 Y167.257 E15.16076
G1 X159.418 Y167.441 E15.17909
G1 X158.253 Y167.859 E15.22437
G1 X157.553 Y168.082 E15.25125
G1 X156.617 Y168.342 E15.28679
G1 X155.817 Y168.537 E15.31692
G1 X155.173 Y168.674 E15.34101
G1 X154.271 Y168.837 E15.37454
G1 X153.844 Y168.904 E15.39036
G1 X153.098 Y169.006 E15.4179
G1 X152.555 Y169.066 E15.43789
G1 X151.874 Y169.125 E15.4629
G1 X151.415 Y169.155 E15.47973
G1 X150.56 Y169.185 E15.51103
G1 X149.861 Y169.189 E15.5366
G1 X149.326 Y169.179 E15.55618
G1 X147.963 Y169.116 E15.6061
G1 X125.445 Y167.752 E16.43146
G1 X124.749 Y167.699 E16.457
G1 X123.775 Y167.58 E16.4929
G1 X122.875 Y167.39 E16.52655
G1 X122.549 Y167.306 E16.53887
G1 X121.625 Y167.022 E16.57423
G1 X121.068 Y166.807 E16.59608
G1 X120.724 Y166.662 E16.60973
G1 X119.836 Y166.241 E16.64569
G1 X118.985 Y165.741 E16.6818
G1 X118.587 Y165.481 E16.69919
G1 X117.789 Y164.907 E16.73516
G1 X117.103 Y164.318 E16.76824
G1 X116.365 Y163.561 E16.80692
G1 X115.786 Y162.852 E16.84041
G1 X115.495 Y162.461 E16.85824
G1 X114.939 Y161.638 E16.89458
G1 X114.331 Y160.507 E16.94156
G1 X114.168 Y160.154 E16.95578
G1 X113.825 Y159.318 E16.98884
G1 X113.472 Y158.155 E17.03331
G1 X113.345 Y157.638 E17.05278
G1 X113.157 Y156.674 E17.08872
G1 X113.061 Y155.775 E17.1218
G1 X113.038 Y155.226 E17.1419
G1 X113.028 Y154.626 E17.16385
G1 X113.028 Y145.626 E17.49313
G1 X113.045 Y144.668 E17.52818
G1 X113.108 Y143.689 E17.56408
G1 X113.244 Y142.795 E17.59716
G1 X113.388 Y142.151 E17.6213
G1 X113.527 Y141.609 E17.64178
G1 X113.803 Y140.707 E17.67629
G1 X114.192 Y139.749 E17.71412
G1 X114.757 Y138.682 E17.75829
G1 X115.018 Y138.25 E17.77675
G1 X115.521 Y137.499 E17.80982
G1 X116.365 Y136.477 E17.85832
G1 X116.706 Y136.114 E17.87654
G1 X117.411 Y135.43 E17.91248
G0 F6000 X117.133 Y135.089
G1 F1200 X117.911 Y134.457 E17.94915
G1 X118.459 Y134.075 E17.97359
G1 X118.739 Y133.893 E17.98581
G1 X119.579 Y133.398 E18.02148
G1 X120.294 Y133.05 E18.05057
G1 X120.779 Y132.835 E18.06998
G1 X121.657 Y132.491 E18.10448
G1 X122.731 Y132.179 E18.1454
G1 X123.905 Y131.961 E18.18908
G1 X124.815 Y131.859 E18.22259
G1 X125.715 Y131.792 E18.25561
G1 X148.124 Y130.432 E19.07697
G1 X148.797 Y130.398 E19.10163
G1 X149.834 Y130.375 E19.13958
G1 X150.914 Y130.388 E19.17909
G1 X151.9 Y130.436 E19.21521
G1 X152.476 Y130.484 E19.23636
G1 X153.61 Y130.617 E19.27813
G1 X154.57 Y130.76 E19.31364
G1 X154.921 Y130.822 E19.32668
G1 X155.501 Y130.938 E19.34832
G1 X156.153 Y131.089 E19.3728
G1 X157.233 Y131.371 E19.41364
G1 X157.626 Y131.485 E19.42861
G1 X158.582 Y131.789 E19.46532
G1 X159.097 Y131.969 E19.48528
G1 X159.89 Y132.27 E19.51631
G1 X160.789 Y132.649 E19.552
G1 X161.238 Y132.857 E19.57011
G1 X161.898 Y133.179 E19.59697
G1 X162.878 Y133.694 E19.63748
G1 X163.631 Y134.125 E19.66922
G1 X164.612 Y134.743 E19.71164
G1 X165.066 Y135.05 E19.73169
G1 X165.705 Y135.508 E19.76045
G1 X166.218 Y135.899 E19.78405
G1 X167.07 Y136.585 E19.82407
G1 X167.663 Y137.092 E19.85262
G1 X168.084 Y137.478 E19.87351
G1 X168.55 Y137.927 E19.89719
G1 X168.921 Y138.302 E19.91649
G1 X169.556 Y138.977 E19.95039
G1 X169.967 Y139.431 E19.9728
G1 X170.52 Y140.091 E20.0043
G1 X171.067 Y140.79 E20.03678
G1 X171.813 Y141.821 E20.08334
G1 X172.154 Y142.323 E20.10554
G1 X172.385 Y142.69 E20.1214
G1 X172.896 Y143.534 E20.1575
G1 X173.347 Y144.361 E20.19196
G1 X173.792 Y145.383 E20.23275
G1 X174.163 Y146.539 E20.27716
G1 X174.275 Y146.976 E20.29367
G1 X174.487 Y147.972 E20.33093
G1 X174.602 Y148.907 E20.36539
G1 X174.64 Y149.889 E20.40135
G1 X174.62 Y150.51 E20.42408
G1 X174.593 Y150.987 E20.44156
G1 X174.501 Y151.887 E20.47466
G1 X174.294 Y152.966 E20.51485
G1 X173.981 Y154.043 E20.55589
G1 X173.844 Y154.433 E20.57101
G1 X173.477 Y155.35 E20.60715
G1 X172.953 Y156.372 E20.64917
G1 X172.434 Y157.244 E20.68629
G1 X172.032 Y157.858 E20.71314
G1 X171.527 Y158.586 E20.74556
G1 X171.233 Y158.99 E20.76384
G1 X170.712 Y159.671 E20.79521
G1 X170.311 Y160.165 E20.81849
